packages/ffe-icons/icons/filled/md/featured_play_list.svg

<svg xmlns="http://www.w3.org/2000/svg" height="24" viewBox="0 -960 960 960" width="24"><path d="M280-450.001h280q12.75 0 21.375-8.628 8.624-8.629 8.624-21.384 0-12.756-8.624-21.371-8.625-8.615-21.375-8.615H280q-12.75 0-21.374 8.628-8.625 8.629-8.625 21.384 0 12.756 8.625 21.371 8.624 8.615 21.374 8.615Zm0-120h280q12.75 0 21.375-8.628 8.624-8.629 8.624-21.384 0-12.756-8.624-21.371-8.625-8.615-21.375-8.615H280q-12.75 0-21.374 8.628-8.625 8.629-8.625 21.384 0 12.756 8.625 21.371 8.624 8.615 21.374 8.615Zm-107.691 390q-30.308 0-51.308-21t-21-51.308v-455.382q0-30.308 21-51.308t51.308-21h615.382q30.308 0 51.308 21t21 51.308v455.382q0 30.308-21 51.308t-51.308 21H172.309Z"/></svg>

<svg xmlns="http://www.w3.org/2000/svg" height="24" viewBox="0 -960 960 960" width="24"><path d="M280-450h280q12.75 0 21.37-8.63 8.63-8.63 8.63-21.38 0-12.76-8.63-21.37Q572.75-510 560-510H280q-12.75 0-21.37 8.63-8.63 8.63-8.63 21.38 0 12.76 8.63 21.37Q267.25-450 280-450Zm0-120h280q12.75 0 21.37-8.63 8.63-8.63 8.63-21.38 0-12.76-8.63-21.37Q572.75-630 560-630H280q-12.75 0-21.37 8.63-8.63 8.63-8.63 21.38 0 12.76 8.63 21.37Q267.25-570 280-570ZM172.31-180Q142-180 121-201q-21-21-21-51.31v-455.38Q100-738 121-759q21-21 51.31-21h615.38Q818-780 839-759q21 21 21 51.31v455.38Q860-222 839-201q-21 21-51.31 21H172.31Z"/></svg>
